packages/theme-chalk/src/icons/dots-vertical.svg

<svg xmlns="http://www.w3.org/2000/svg" width="24" height="24" viewBox="0 0 24 24">
    <g fill-rule="evenodd">
        <path fill-rule="nonzero" d="M12 8c1.1 0 2-.9 2-2s-.9-2-2-2-2 .9-2 2 .9 2 2 2zm0 2c-1.1 0-2 .9-2 2s.9 2 2 2 2-.9 2-2-.9-2-2-2zm0 6c-1.1 0-2 .9-2 2s.9 2 2 2 2-.9 2-2-.9-2-2-2z"/>
    </g>
</svg>

<svg width="4px" height="16px" viewBox="0 0 4 16" version="1.1" xmlns="http://www.w3.org/2000/svg" xmlns:xlink="http://www.w3.org/1999/xlink">
    <g id="Symbols" stroke="none" stroke-width="1" fill-rule="evenodd">
        <g id="icon/active/more" transform="translate(-10.000000, -4.000000)">
            <path d="M12,8 C13.1,8 14,7.1 14,6 C14,4.9 13.1,4 12,4 C10.9,4 10,4.9 10,6 C10,7.1 10.9,8 12,8 Z M12,10 C10.9,10 10,10.9 10,12 C10,13.1 10.9,14 12,14 C13.1,14 14,13.1 14,12 C14,10.9 13.1,10 12,10 Z M12,16 C10.9,16 10,16.9 10,18 C10,19.1 10.9,20 12,20 C13.1,20 14,19.1 14,18 C14,16.9 13.1,16 12,16 Z" fill-rule="nonzero"></path>
        </g>
    </g>
</svg>
